svgs/tado.svg

<svg width="192" height="192" viewBox="0 0 192 192" fill="none" xmlns="http://www.w3.org/2000/svg">
<path d="M59 84H67C70.3137 84 73 86.6863 73 90V108M73 119V108M71 99H58.5C55.8333 99.3333 50.5 101.2 50.5 108C50.5 116.5 57 119 61 119C62.9256 119 65.0686 118.517 66.7968 117.878C68.5921 117.215 70.6882 116.174 71.5478 114.464C72.3407 112.886 73 110.551 73 108" stroke="black" stroke-width="8" stroke-linecap="round" stroke-linejoin="round"/>
<path d="M152 102C152 111.99 145.176 119 138 119C130.824 119 124 111.99 124 102C124 92.0105 130.824 85 138 85C145.176 85 152 92.0105 152 102Z" stroke="black" stroke-width="8"/>
<path d="M113 102C113 111.88 106.047 119 98.5 119C90.9532 119 84 111.88 84 102C84 92.1197 90.9532 85 98.5 85C106.047 85 113 92.1197 113 102Z" stroke="black" stroke-width="8"/>
<path d="M113 71L113 102" stroke="black" stroke-width="8" stroke-linecap="round" stroke-linejoin="round"/>
<circle cx="164.5" cy="78.5" r="8.5" stroke="black" stroke-width="6"/>
<path d="M20 84H48" stroke="black" stroke-width="8" stroke-linecap="round" stroke-linejoin="round"/>
<path d="M26 71V113C26 116.314 28.6863 119 32 119H36" stroke="black" stroke-width="8" stroke-linecap="round" stroke-linejoin="round"/>
</svg>

<svg xmlns="http://www.w3.org/2000/svg" width="192" height="192" fill="none" viewBox="0 0 192 192" stroke="#000" stroke-linecap="round" stroke-linejoin="round" stroke-width="8"><path d="M59 84h8a6 6 0 0 1 6 6v18m0 11v-11m-2-9H58.5c-2.667.333-8 2.2-8 9 0 8.5 6.5 11 10.5 11 1.926 0 4.069-.483 5.797-1.122 1.795-.663 3.891-1.704 4.75-3.414C72.342 112.886 73 110.551 73 108"/><path d="M152 102c0 9.99-6.824 17-14 17s-14-7.01-14-17 6.824-17 14-17 14 7.01 14 17Zm-39 0c0 9.88-6.953 17-14.5 17S84 111.88 84 102s6.953-17 14.5-17 14.5 7.12 14.5 17Z"/><path d="M113 71v31"/><path d="M20 84h28M26 71v42a6 6 0 0 0 6 6h4"/><circle cx="164.5" cy="78.5" r="8.5" stroke-width="6"/></svg>
